X: 343
T:Peggy. JaW.342
T:Four & Twenty Blackbirds,aka. JaW.342
M:2/4
Q:80
C:Four & Twenty Blackbirds,aka
S:James Winder Ms, Lancashire, 1835-41
R:Country Dance
O:England
A:Wyresdale,Lancashire
H:1/8
Z:vmp.Chris Partington, Aug 2004
K:D
(dc).B.A|(Bd)F2|ABAF|A4|!
(dc).B.A|(Bd)F2|FBBA|B4:|!
|:A<d .d.d|A<d .d.d|B<e .e.e|e3f|!
(gf).e.d|dcBA|(B<d)(c<e)|d4:|]
